X:1
T: Tennessee Hornpipe
C:
R:Jig
Q:180
K:A
M:6/8
L:1/16
A2|:A2c2e2 e2c2e2|f2e2c2 e4a2|g2f2g2 B2c2d2|f2e2c2 e2d2B2|
A2c2e2 e2c2e2|f2e2f2 e4a2|g2a2b2 f4g2|1a6 a4A2:|2a6 a4b2|
|:c'2b2a2 b2a2g2|a2g2f2 e4e2|f2e2c2 e2c2e2|f2e2c2 e4A2|
A2c2e2 e2c2e2|f2e2f2 e4a2|g2a2b2 f4g2|1a6 a4b2:|2a6 a4||
